X:1
T:Sur les bancs de Terre Neuve
C:Appris du groupe "Shangaïé", fichier abc : Bernard Loffet
L:1/8
Q:500
M:2/2
K:C
 z2e2 [e2A,,2][g2E,2] | [e2A,,2][c2A,2] [d2D,,2][d2D,2] | [e2A,,2]A,e [e2A,,2][g2E,2] | \
 [e2A,,2][c2A,2] [d2D,,2][d2D,2] | [e2A,,2]A,A [A2A,,2][d2A,2] | [d2D,,2][d2D,2] [d2D,,2][e2D,2] | \
 [d2D,,2][cD,]d [e2A,,2]A,2 | A,,2[c2A,2] [e2A,,2][c2A,2] | [B2E,,2]E,2 E,,2E,2 | \
|: [A2A,,2]A,2 [A2A,,2][B2A,2] | [c2A,,2][d2A,2] [e2A,,2][e2A,2] | [d2D,,2]D,2 [c2A,,2]A,A | \
 [c2E,,2][B2E,2] [A2A,,2]A,2 :| \
Z:Created with TablEdit http://www.tabledit.com/ by Bernard Loffet
